X:230
T:Arkensas Traveler - duet
C:Traditional Arr. by David Grisman
N:TablEdited by Wendy Anthony
L:1/8
Q:1/4=90
M:2/4
K:D
|: "D"D/F/E/D/ "G"B,B,/B,/ | "D"A,A, DD/D/ | "A"EE FF/D/ | E/F/E/D/ B,A, | "D"D/F/E/D/ "G"B,B,/B,/ | 
"D"A,A, DD/D/ | "D"d/c/d/A/ "G"B/d/B/A/ |1 "D"F/D/"A"E/F/ "D"Dz :|2 "D"F/D/"A"E/F/ "D"Df/g/ | 
|: "D"af "G"g/f/e/g/ | "D"f/e/d "A"eA | "D"dd "A"ee/e/ | "D"f/e/f/a/ "A"ef/g/ | 
"D"a/g/f/a/ "G"g/f/e/g/ | "D"f/e/d/f/ "A"eA | "D"d/c/d/A/ "G"B/d/B/A/ |1 "D"F/D/"A"E "D"Df/g/ :|2 "D"F/D/"A"E "D"D2 | 
 


